flaticon/office/compass.svg

<svg xmlns="http://www.w3.org/2000/svg" width="32" height="32" viewBox="0 0 24 24">
    <path d="M 13.382812 10.398438 C 14.265625 10.398438 14.984375 9.679688 14.984375 8.800781 C 14.984375 7.921875 14.265625 7.199219 13.382812 7.199219 C 12.503906 7.199219 11.785156 7.921875 11.785156 8.800781 C 11.785156 9.679688 12.503906 10.398438 13.382812 10.398438 Z M 13.382812 8 C 13.824219 8 14.183594 8.359375 14.183594 8.800781 C 14.183594 9.238281 13.824219 9.601562 13.382812 9.601562 C 12.945312 9.601562 12.585938 9.238281 12.585938 8.800781 C 12.585938 8.359375 12.945312 8 13.382812 8 Z M 13.382812 8"/>
    <path d="M 19.222656 21.238281 L 18.703125 19.320312 C 18.664062 19.238281 18.585938 19.121094 18.503906 19.078125 C 18.398438 19.046875 18.324219 19.011719 18.230469 19.027344 L 18.039062 18.285156 C 18.179688 18.199219 18.257812 18.007812 18.222656 17.839844 L 16.199219 10.320312 C 16.445312 9.867188 16.585938 9.347656 16.585938 8.800781 C 16.585938 7.464844 15.753906 6.3125 14.585938 5.835938 L 14.585938 4.800781 L 14.984375 4.800781 C 15.222656 4.800781 15.382812 4.640625 15.382812 4.398438 L 15.382812 2 C 15.382812 0.878906 14.503906 0 13.382812 0 C 12.265625 0 11.382812 0.878906 11.382812 2 L 11.382812 4.398438 C 11.382812 4.640625 11.542969 4.800781 11.785156 4.800781 L 12.183594 4.800781 L 12.183594 5.835938 C 11.015625 6.3125 10.183594 7.464844 10.183594 8.800781 C 10.183594 9.316406 10.308594 9.804688 10.527344 10.234375 L 7.746094 17.921875 C 7.671875 18.117188 7.605469 18.3125 7.542969 18.511719 L 7.179688 18.378906 L 7.464844 17.640625 C 7.503906 17.519531 7.503906 17.398438 7.464844 17.320312 C 7.425781 17.238281 7.304688 17.160156 7.222656 17.121094 L 6.105469 16.71875 C 5.902344 16.640625 5.664062 16.761719 5.585938 16.960938 L 4.746094 19.199219 C 4.664062 19.398438 4.785156 19.640625 4.984375 19.71875 L 6.105469 20.121094 C 6.144531 20.160156 6.183594 20.160156 6.222656 20.160156 C 6.265625 20.160156 6.34375 20.160156 6.382812 20.160156 C 6.464844 20.121094 6.542969 20 6.585938 19.917969 L 6.886719 19.136719 L 7.316406 19.289062 C 7.121094 20.058594 6.996094 20.839844 6.945312 21.640625 L 6.863281 22.679688 C 6.863281 22.839844 6.984375 23 7.144531 23.078125 L 7.15625 23.082031 L 7.023438 23.441406 C 6.945312 23.640625 7.0625 23.878906 7.265625 23.960938 C 7.304688 24 7.34375 24 7.382812 24 C 7.542969 24 7.703125 23.878906 7.746094 23.761719 L 7.894531 23.355469 L 7.902344 23.359375 C 7.945312 23.398438 7.984375 23.398438 8.023438 23.398438 C 8.144531 23.398438 8.265625 23.320312 8.34375 23.199219 L 8.945312 22.320312 C 9.703125 21.28125 10.304688 20.160156 10.746094 18.960938 L 11.183594 17.71875 C 11.222656 17.601562 11.222656 17.480469 11.144531 17.359375 C 10.863281 16.960938 10.824219 16.441406 10.984375 15.960938 C 11.144531 15.519531 11.542969 15.160156 12.023438 15 C 12.144531 14.960938 12.222656 14.878906 12.265625 14.761719 L 13.316406 12 C 13.339844 12 13.359375 12 13.378906 12 L 14.550781 16.308594 L 14.195312 16.40625 L 13.984375 15.640625 C 13.945312 15.558594 13.863281 15.441406 13.785156 15.398438 C 13.664062 15.359375 13.585938 15.320312 13.464844 15.359375 L 12.304688 15.679688 C 12.105469 15.71875 11.984375 15.960938 12.023438 16.160156 L 12.664062 18.480469 C 12.746094 18.640625 12.90625 18.761719 13.0625 18.761719 C 13.0625 18.761719 13.105469 18.761719 13.183594 18.800781 L 14.34375 18.480469 C 14.425781 18.441406 14.542969 18.398438 14.585938 18.28125 C 14.625 18.160156 14.664062 18.078125 14.625 17.960938 L 14.40625 17.164062 L 14.757812 17.066406 L 15.183594 18.640625 C 15.265625 18.800781 15.425781 18.917969 15.585938 18.917969 C 15.625 18.917969 15.664062 18.878906 15.625 18.960938 L 15.691406 18.941406 L 15.878906 19.675781 L 15.863281 19.679688 C 15.664062 19.71875 15.542969 19.960938 15.585938 20.160156 L 16.105469 22.078125 C 16.304688 22.800781 16.945312 23.28125 17.664062 23.28125 C 17.664062 23.28125 17.667969 23.28125 17.667969 23.28125 L 17.785156 23.71875 C 17.863281 23.878906 18.023438 24 18.183594 24 C 18.222656 24 18.265625 24 18.265625 24 C 18.464844 23.960938 18.585938 23.71875 18.542969 23.519531 L 18.425781 23.066406 C 18.691406 22.917969 18.917969 22.699219 19.0625 22.441406 C 19.265625 22.078125 19.34375 21.640625 19.222656 21.238281 Z M 5.984375 19.238281 L 5.625 19.121094 L 6.144531 17.601562 L 6.542969 17.71875 Z M 13.304688 17.878906 L 12.90625 16.320312 L 13.304688 16.199219 L 13.5 16.957031 C 13.5 16.972656 13.5 16.984375 13.503906 17 C 13.507812 17.007812 13.511719 17.011719 13.515625 17.019531 L 13.703125 17.761719 Z M 15.664062 11.039062 L 17.425781 17.601562 L 15.863281 18 L 14.226562 11.886719 C 14.320312 11.859375 14.410156 11.832031 14.5 11.796875 C 14.636719 11.75 14.773438 11.6875 14.90625 11.613281 C 14.910156 11.609375 14.914062 11.609375 14.917969 11.605469 C 14.945312 11.589844 14.976562 11.574219 15.003906 11.554688 C 15.210938 11.433594 15.40625 11.285156 15.582031 11.121094 C 15.589844 11.113281 15.597656 11.105469 15.605469 11.097656 C 15.621094 11.082031 15.636719 11.066406 15.652344 11.050781 C 15.65625 11.046875 15.660156 11.042969 15.664062 11.039062 Z M 12.183594 2 C 12.183594 1.320312 12.703125 0.800781 13.382812 0.800781 C 14.0625 0.800781 14.585938 1.320312 14.585938 2 L 14.585938 4 L 12.183594 4 Z M 12.984375 4.800781 L 13.785156 4.800781 L 13.785156 5.625 C 13.742188 5.621094 13.699219 5.617188 13.65625 5.613281 C 13.5625 5.601562 13.464844 5.601562 13.382812 5.601562 C 13.304688 5.601562 13.207031 5.601562 13.113281 5.613281 C 13.070312 5.617188 13.027344 5.621094 12.984375 5.625 Z M 12.59375 6.535156 C 12.632812 6.535156 12.667969 6.53125 12.703125 6.519531 C 13.144531 6.398438 13.625 6.398438 14.0625 6.519531 C 14.085938 6.519531 14.109375 6.519531 14.128906 6.519531 C 15.085938 6.835938 15.785156 7.738281 15.785156 8.800781 C 15.785156 9.210938 15.679688 9.601562 15.496094 9.9375 C 15.46875 9.96875 15.445312 10 15.425781 10.039062 C 15.367188 10.140625 15.300781 10.238281 15.230469 10.328125 C 14.789062 10.859375 14.125 11.199219 13.382812 11.199219 C 13.335938 11.199219 13.289062 11.199219 13.242188 11.195312 C 13.199219 11.171875 13.152344 11.160156 13.105469 11.160156 C 12.414062 11.082031 11.761719 10.675781 11.355469 10.078125 C 11.121094 9.707031 10.984375 9.269531 10.984375 8.800781 C 10.984375 7.757812 11.660156 6.863281 12.59375 6.535156 Z M 11.625 14.320312 C 10.984375 14.558594 10.503906 15.078125 10.265625 15.71875 C 10.0625 16.359375 10.105469 17.078125 10.425781 17.679688 L 10.023438 18.761719 C 9.625 19.878906 9.0625 20.960938 8.34375 21.921875 L 7.90625 22.519531 L 7.703125 22.441406 L 7.746094 21.71875 C 7.824219 20.519531 8.105469 19.320312 8.503906 18.199219 L 11.105469 11.039062 C 11.109375 11.042969 11.113281 11.046875 11.117188 11.050781 C 11.132812 11.066406 11.148438 11.082031 11.164062 11.097656 C 11.171875 11.105469 11.179688 11.113281 11.1875 11.117188 C 11.5625 11.476562 12.027344 11.746094 12.542969 11.886719 Z M 17.234375 18.515625 L 17.425781 19.238281 L 16.664062 19.441406 L 16.476562 18.726562 Z M 18.34375 22.078125 C 18.222656 22.238281 18.0625 22.398438 17.863281 22.441406 C 17.425781 22.558594 16.984375 22.320312 16.863281 21.878906 L 16.46875 20.34375 C 16.480469 20.34375 16.492188 20.347656 16.503906 20.359375 L 18.035156 19.96875 L 18.425781 21.480469 C 18.464844 21.679688 18.464844 21.878906 18.34375 22.078125 Z M 18.34375 22.078125"/>
</svg>

<svg xmlns="http://www.w3.org/2000/svg" width="32" height="32" viewBox="0 0 24 24">
    <path d="M13.383 10.398c.883 0 1.601-.718 1.601-1.597 0-.88-.718-1.602-1.601-1.602-.88 0-1.598.723-1.598 1.602 0 .879.719 1.597 1.598 1.597zm0-2.398c.441 0 .8.36.8.8 0 .438-.359.802-.8.802a.801.801 0 0 1 0-1.602zm0 0"/>
    <path d="M19.223 21.238l-.52-1.918c-.039-.082-.117-.199-.2-.242-.105-.031-.179-.066-.273-.05l-.19-.743a.435.435 0 0 0 .183-.445l-2.024-7.52a3.18 3.18 0 0 0 .387-1.52 3.214 3.214 0 0 0-2-2.964V4.8h.398c.239 0 .399-.16.399-.403V2c0-1.121-.88-2-2-2-1.117 0-2 .879-2 2v2.398c0 .243.16.403.402.403h.399v1.035a3.214 3.214 0 0 0-2 2.965c0 .515.125 1.004.343 1.433l-2.78 7.688c-.075.195-.142.39-.204.59l-.363-.133.285-.738c.039-.121.039-.243 0-.32-.04-.083-.16-.16-.242-.2l-1.118-.402c-.203-.078-.44.043-.52.242l-.839 2.238c-.082.2.04.442.238.52l1.121.402c.04.04.079.04.118.04h.16c.082-.04.16-.161.203-.243l.3-.781.43.152c-.195.77-.32 1.55-.37 2.352l-.083 1.039c0 .16.121.32.282.398l.011.004-.133.36c-.078.199.04.437.243.519.039.039.078.039.117.039.16 0 .32-.121.363-.238l.149-.407.007.004c.043.04.082.04.121.04.122 0 .243-.079.32-.2l.602-.879c.758-1.039 1.36-2.16 1.801-3.36l.438-1.241a.397.397 0 0 0-.04-.36c-.28-.398-.32-.918-.16-1.398.16-.441.559-.8 1.04-.961.12-.04.199-.121.242-.238L13.316 12h.063l1.172 4.309-.356.097-.21-.765a.606.606 0 0 0-.2-.243c-.12-.039-.2-.078-.32-.039l-1.16.32c-.2.04-.32.282-.282.481l.641 2.32c.082.16.242.282.399.282 0 0 .042 0 .12.039l1.16-.32c.083-.04.2-.083.243-.2.039-.12.078-.203.039-.32l-.219-.797.352-.098.426 1.575c.082.16.242.277.402.277.039 0 .078-.04.039.043l.066-.02.188.735-.016.004c-.199.039-.32.28-.277.48l.52 1.918c.199.723.84 1.203 1.558 1.203h.004l.117.438c.078.16.238.281.399.281h.082c.199-.04.32-.281.277-.48l-.117-.454a1.66 1.66 0 0 0 .637-.625c.203-.363.28-.8.16-1.203zm-13.239-2l-.359-.117.52-1.52.398.118zm7.32-1.36l-.398-1.558.399-.12.195.757c0 .016 0 .027.004.043l.012.02.187.742zm2.36-6.839l1.762 6.563-1.563.398-1.636-6.113c.093-.028.183-.055.273-.09.137-.047.273-.11.406-.184.004-.004.008-.004.012-.008.027-.015.059-.03.086-.05.207-.121.402-.27.578-.434l.023-.023.047-.047.012-.012zM12.184 2c0-.68.52-1.2 1.199-1.2.68 0 1.203.52 1.203 1.2v2h-2.402zm.8 2.8h.801v.825l-.129-.012c-.094-.011-.191-.011-.273-.011-.078 0-.176 0-.27.011l-.129.012zm-.39 1.735c.039 0 .074-.004.11-.015a2.589 2.589 0 0 1 1.358 0h.067a2.411 2.411 0 0 1 1.656 2.28c0 .41-.105.802-.289 1.137a.47.47 0 0 0-.07.102c-.059.102-.125.2-.196.29a2.398 2.398 0 0 1-1.847.87c-.047 0-.094 0-.14-.004a.285.285 0 0 0-.138-.035c-.69-.078-1.343-.484-1.75-1.082a2.384 2.384 0 0 1-.37-1.277 2.41 2.41 0 0 1 1.609-2.266zm-.969 7.785c-.64.239-1.121.758-1.36 1.399-.203.64-.16 1.36.16 1.96l-.402 1.083c-.398 1.117-.96 2.199-1.68 3.16l-.437.598-.203-.079.043-.722c.078-1.2.36-2.399.758-3.52l2.601-7.16.012.012.047.047a3.167 3.167 0 0 0 1.379.79zm5.61 4.196l.19.722-.76.203-.188-.714zm1.109 3.562c-.121.16-.282.32-.48.363a.804.804 0 0 1-1-.562l-.395-1.535c.011 0 .023.004.035.015l1.531-.39.39 1.511c.04.2.04.399-.081.598zm0 0"/>
</svg>
